X: 42854
T: Wild Hills Of Wannie, The
R: waltz
M: 3/4
K: Adorian
g>f|e2- e>A A2|A2- A>B A2|(3efe d2 e2|g4 f>e|
d2- d>B G2|(3GAG D2 G2|(3BcB G2 B2|d2- d>B g>f|
e2 A2- A>A|(3ABA ^G2 A2|(3efe d2 e2|a4 (3agf|
g2 f2- f>e|(3ded B2 d2|e2 A2 ^GA|A4||
(3ef^g|a2- a>^g a2|e2- e>f ^g2|(3aba ^g2 a2|e4 (3def|
g2- g>f g2|d2 B2 f2|(3gag f2 g2|d4 f>^g|
a2- a>^g a2|e2 e>f g2|(3aba ^g2 a2|e4 e>f|
g2- g>f e2|(3ded B2 g>f|(3efe A2- A>A|A4||

